img/image/socials1.svg

<svg width="20" height="13" viewBox="0 0 20 13" fill="none" xmlns="http://www.w3.org/2000/svg">
<path opacity="0.8" d="M0.321536 1.63791H3.81327C3.8792 1.63809 3.94371 1.658 3.99919 1.69528C4.05468 1.73256 4.09883 1.78567 4.12645 1.84835C4.89291 3.628 5.88843 5.28942 7.0853 6.78635C7.10844 6.82484 7.14119 6.85597 7.18001 6.87639C7.21882 6.89681 7.26222 6.90574 7.30552 6.90221C7.34883 6.89869 7.3904 6.88284 7.42573 6.85638C7.46106 6.82992 7.48881 6.79386 7.50599 6.75209C7.87526 5.81735 8.55305 3.53677 7.23956 1.91687C7.21269 1.88305 7.19355 1.84324 7.18361 1.8005C7.17368 1.75776 7.17321 1.71321 7.18223 1.67025C7.19125 1.62728 7.20952 1.58704 7.23565 1.5526C7.26179 1.51816 7.2951 1.49043 7.33304 1.47152C7.94167 1.1706 8.60454 1.00885 9.27752 0.997035C9.95051 0.985222 10.6182 1.12361 11.2361 1.403C11.3665 1.46349 11.4774 1.56224 11.5554 1.6873C11.6334 1.81236 11.6751 1.95838 11.6755 2.10773L11.97 6.80593C11.97 6.85527 11.9802 6.90402 12.0001 6.94874C12.02 6.99347 12.049 7.03309 12.0851 7.06481C12.1212 7.09653 12.1635 7.11959 12.209 7.13236C12.2546 7.14513 12.3022 7.1473 12.3486 7.13872C13.807 6.81082 14.6858 4.52045 15.5225 2.1322C15.5724 1.98863 15.6633 1.86463 15.7829 1.77707C15.9025 1.68951 16.045 1.64263 16.1909 1.64281H19.4069C19.4693 1.64204 19.5311 1.65552 19.5881 1.68231C19.645 1.70909 19.6957 1.74853 19.7366 1.7979C19.7776 1.84726 19.8077 1.90536 19.825 1.96816C19.8423 2.03097 19.8464 2.09696 19.8369 2.16156C19.5331 3.85487 17.9017 6.07673 17.0323 7.11425C16.8887 7.29119 16.8099 7.51582 16.8099 7.74802C16.8099 7.98021 16.8887 8.20484 17.0323 8.38178L19.9117 11.9691C19.9579 12.0268 19.9874 12.0972 19.9968 12.172C20.0061 12.2467 19.995 12.3227 19.9645 12.391C19.9341 12.4593 19.8857 12.5172 19.825 12.5577C19.7643 12.5983 19.6939 12.6199 19.6219 12.6199H15.9946C15.8463 12.6194 15.6996 12.5869 15.5637 12.5246C15.4279 12.4623 15.3056 12.3715 15.2046 12.2578L12.6618 10.0408C12.6323 10.0012 12.5954 9.96834 12.5534 9.94425C12.5113 9.92016 12.4649 9.90536 12.4172 9.90077C12.3694 9.89618 12.3213 9.9019 12.2757 9.91758C12.2301 9.93325 12.1881 9.95854 12.1523 9.99189C11.8391 10.3932 11.8625 10.8875 11.7129 12.0131C11.6871 12.1838 11.6034 12.3391 11.4773 12.4505C11.3511 12.5619 11.1908 12.6221 11.0258 12.6199H8.56239C8.20822 12.6223 7.85818 12.5403 7.53871 12.3801C6.10837 11.6754 2.20529 9.15992 0.0130285 2.10284C-0.000926788 2.05075 -0.00371127 1.99608 0.00486897 1.94274C0.0134492 1.8894 0.0331917 1.8387 0.0626705 1.79427C0.0921493 1.74985 0.130639 1.71279 0.175392 1.68576C0.220145 1.65873 0.270047 1.64239 0.321536 1.63791Z" fill="#D9D9D9"/>
</svg>

<svg width="20" height="13" fill="none" xmlns="http://www.w3.org/2000/svg"><path opacity=".8" d="M.322 1.638h3.491c.066 0 .13.02.186.057.056.038.1.09.127.153a21.565 21.565 0 0 0 2.96 4.938c.022.039.055.07.094.09a.23.23 0 0 0 .246-.02.248.248 0 0 0 .08-.104c.37-.935 1.047-3.215-.266-4.835a.294.294 0 0 1-.058-.247.295.295 0 0 1 .054-.117.278.278 0 0 1 .097-.081 4.556 4.556 0 0 1 3.903-.069c.13.06.241.16.32.284a.8.8 0 0 1 .12.42l.294 4.699a.351.351 0 0 0 .115.259.318.318 0 0 0 .264.074c1.458-.328 2.337-2.619 3.174-5.007a.74.74 0 0 1 .26-.355.689.689 0 0 1 .408-.134h3.216a.414.414 0 0 1 .33.155.456.456 0 0 1 .1.364c-.304 1.693-1.935 3.915-2.805 4.952a1.007 1.007 0 0 0-.222.634c0 .232.079.457.222.634l2.88 3.587a.406.406 0 0 1 .053.422.391.391 0 0 1-.14.167.365.365 0 0 1-.203.062h-3.627c-.149 0-.295-.033-.431-.095a1.087 1.087 0 0 1-.36-.267l-2.542-2.217a.357.357 0 0 0-.245-.14.336.336 0 0 0-.265.09c-.313.402-.29.896-.44 2.022a.728.728 0 0 1-.235.438.669.669 0 0 1-.451.169H8.562a2.248 2.248 0 0 1-1.023-.24C6.109 11.675 2.205 9.16.013 2.103a.384.384 0 0 1 .05-.309.34.34 0 0 1 .259-.156Z" fill="#D9D9D9"/></svg>
